src/standard/app-mobile.svg

<svg xmlns="http://www.w3.org/2000/svg" viewBox="0 0 36 36">
  <path d="M15 7.38a.62.62 0 0 0-.61.63.61.61 0 0 0 .61.62.62.62 0 0 0 .62-.63.63.63 0 0 0-.62-.62Zm10 6a.63.63 0 0 0-.62.63.63.63 0 0 0 1.25 0 .63.63 0 0 0-.63-.63Zm-2 0a.62.62 0 0 0-.61.63.61.61 0 0 0 .61.62.62.62 0 0 0 .63-.62.63.63 0 0 0-.63-.63Z"/>
  <path d="M22 26.38a.62.62 0 0 0-.62.62v3.38H8.62V5.62h12.76V8a.62.62 0 0 0 1.24 0V5a.62.62 0 0 0-.62-.62H8a.62.62 0 0 0-.62.62v26a.62.62 0 0 0 .62.62h14a.62.62 0 0 0 .62-.62v-4a.62.62 0 0 0-.62-.62Z"/>
  <path d="M12.38 28a.62.62 0 0 0 .62.62h4a.62.62 0 0 0 0-1.24h-4a.62.62 0 0 0-.62.62ZM28 10.38H18a.62.62 0 0 0-.62.62v10a.62.62 0 0 0 .62.62h10a.62.62 0 0 0 .62-.62V11a.62.62 0 0 0-.62-.62Zm-.62 10h-8.76v-8.76h8.76Z"/>
  <path d="M25 23.38h-9.38V14a.62.62 0 0 0-1.24 0v10a.62.62 0 0 0 .62.62h10a.62.62 0 0 0 0-1.24Z"/>
</svg>

<svg id="b85341d4-6978-4bb5-9133-a621c78bad94" data-name="Icon" xmlns="http://www.w3.org/2000/svg" viewBox="0 0 36 36">
  <title>Mobile app icon - Black</title>
<desc>application, develop, development, code, square, button, program, software, run, box, stack, software and technologies</desc>
<metadata><?xpacket begin="﻿" id="W5M0MpCehiHzreSzNTczkc9d"?>
<x:xmpmeta xmlns:x="adobe:ns:meta/" x:xmptk="Adobe XMP Core 8.0-c001 1.000000, 0000/00/00-00:00:00        ">
   <rdf:RDF xmlns:rdf="http://www.w3.org/1999/02/22-rdf-syntax-ns#">
      <rdf:Description rdf:about=""
            xmlns:xmp="http://ns.adobe.com/xap/1.0/"
            xmlns:dc="http://purl.org/dc/elements/1.1/"
            xmlns:cq="http://www.day.com/jcr/cq/1.0"
            xmlns:tiff="http://ns.adobe.com/tiff/1.0/">
         <xmp:rhcc-effective-on>2023-12-08T17:41:58.924Z</xmp:rhcc-effective-on>
         <xmp:rhcc-metadata-complete-moderator>pending</xmp:rhcc-metadata-complete-moderator>
         <xmp:rhcc-translation-id>TRA0ee32309-b28c-41a1-986f-eb8850bbdd2a</xmp:rhcc-translation-id>
         <xmp:brand-content-type>Icon</xmp:brand-content-type>
         <xmp:CreateDate>2023-12-08T17:41:58.924Z</xmp:CreateDate>
         <xmp:rhcc-effective-on-set-on-upload>true</xmp:rhcc-effective-on-set-on-upload>
         <xmp:rhcc-metadata-complete-uploader>pending</xmp:rhcc-metadata-complete-uploader>
         <xmp:rhcc-file-last-modified>2023-12-08T17:42:21.294Z</xmp:rhcc-file-last-modified>
         <xmp:rhcc-audience>rhcc-audience:internal</xmp:rhcc-audience>
         <xmp:rhcc-rights-restricted>no</xmp:rhcc-rights-restricted>
         <xmp:brand-content-subtype>Icon</xmp:brand-content-subtype>
         <xmp:rhcc-derivative-id>DER0ee32309-b28c-41a1-986f-eb8850bbdd2a</xmp:rhcc-derivative-id>
         <xmp:brand-logo-color>Black</xmp:brand-logo-color>
         <xmp:rhcc-notify-portal-subscribers-on-change>yes</xmp:rhcc-notify-portal-subscribers-on-change>
         <dc:format>image/svg+xml</dc:format>
         <dc:modified>2024-02-09T20:14:12.560Z</dc:modified>
         <dc:title>
            <rdf:Alt>
               <rdf:li xml:lang="x-default">Mobile app icon - Black</rdf:li>
            </rdf:Alt>
         </dc:title>
         <dc:description>
            <rdf:Alt>
               <rdf:li xml:lang="x-default">application, develop, development, code, square, button, program, software, run, box, stack, software and technologies</rdf:li>
            </rdf:Alt>
         </dc:description>
         <cq:lastReplicationAction_scene7>Activate</cq:lastReplicationAction_scene7>
         <cq:lastReplicationAction_publish>Activate</cq:lastReplicationAction_publish>
         <cq:lastReplicated_publish>2024-02-09T21:50:52.119Z</cq:lastReplicated_publish>
         <cq:lastReplicatedBy>workflow-process-service</cq:lastReplicatedBy>
         <cq:lastReplicationAction>Activate</cq:lastReplicationAction>
         <cq:lastReplicatedBy_publish>workflow-process-service</cq:lastReplicatedBy_publish>
         <cq:isDelivered>true</cq:isDelivered>
         <cq:lastReplicated>2024-02-09T21:50:52.119Z</cq:lastReplicated>
         <cq:lastReplicatedBy_scene7>workflow-process-service</cq:lastReplicatedBy_scene7>
         <cq:lastReplicated_scene7>2024-02-09T21:50:52.119Z</cq:lastReplicated_scene7>
         <tiff:ImageLength>36</tiff:ImageLength>
         <tiff:ImageWidth>36</tiff:ImageWidth>
      </rdf:Description>
   </rdf:RDF>
</x:xmpmeta>
                                                                                                    
                                                                                                    
                                                                                                    
                                                                                                    
                                                                                                    
                                                                                                    
                                                                                                    
                                                                                                    
                                                                                                    
                                                                                                    
                                 
<?xpacket end="w"?></metadata>
<g>
    <path d="M15,7.38a.62.62,0,0,0-.61.63.61.61,0,0,0,.61.62A.62.62,0,0,0,15.62,8,.63.63,0,0,0,15,7.38Z"/>
    <path d="M25,13.38a.63.63,0,0,0-.62.63.63.63,0,0,0,1.25,0A.63.63,0,0,0,25,13.38Z"/>
    <path d="M23,13.38a.62.62,0,0,0-.61.63.61.61,0,0,0,.61.62.62.62,0,0,0,.63-.62A.63.63,0,0,0,23,13.38Z"/>
    <g>
      <path d="M22,26.38a.62.62,0,0,0-.62.62v3.38H8.62V5.62H21.38V8a.62.62,0,0,0,1.24,0V5A.62.62,0,0,0,22,4.38H8A.62.62,0,0,0,7.38,5V31a.62.62,0,0,0,.62.62H22a.62.62,0,0,0,.62-.62V27A.62.62,0,0,0,22,26.38Z"/>
      <path d="M12.38,28a.62.62,0,0,0,.62.62h4a.62.62,0,0,0,0-1.24H13A.62.62,0,0,0,12.38,28Z"/>
      <path d="M28,10.38H18a.62.62,0,0,0-.62.62V21a.62.62,0,0,0,.62.62H28a.62.62,0,0,0,.62-.62V11A.62.62,0,0,0,28,10.38Zm-.62,10H18.62V11.62h8.76Z"/>
      <path d="M25,23.38H15.62V14a.62.62,0,0,0-1.24,0V24a.62.62,0,0,0,.62.62H25a.62.62,0,0,0,0-1.24Z"/>
    </g>
  </g>
</svg>
